X:18075
T:Up to your knees in sand
M:4/4
L:1/8
K:G
G2 {A}GF GABc|dBeB dBAF|DFAF BFAF|DFAF GFEF|G2 {A}GF GABc|dBeB dBA2|
Be {a}e2 dBAF|DEFD ~E3F:| G~B3 gBfB|F~A3 FAdA|~G3F GBdB|AGFG~E3F|
GB{c}B2 gBfB|F~A3 FAdA| ~G3F GBdB|AGFG ~E3F:|
